icons/plexis/48/calligragemini.svg

<svg viewBox="0 0 48 48" xmlns="http://www.w3.org/2000/svg" xmlns:xlink="http://www.w3.org/1999/xlink">
  <linearGradient id="a" gradientTransform="matrix(0 -1 1 0 -.0000015 47.999998)" gradientUnits="userSpaceOnUse" x1="1" x2="47">
    <stop offset="0" stop-color="#f2d5c6"/>
    <stop offset="1" stop-color="#f6e1d6"/>
  </linearGradient>
  <path d="m47 24c0 22.703-.297 23-23 23-22.703 0-23-.297-23-23 0-22.703.297-23 23-23 22.703 0 23 .297 23 23z" fill="url(#a)"/>
  <path d="m24.918 13c-6.582 0-11.918 5.373-11.918 12 0 6.627 5.336 12 11.918 12h10.08c-1.723-4.161-5-7-10-7-2.531 0-5-2.451-5-5 0-2.549 2.469-5 5-5 5 0 8.277-2.839 10-7z" opacity=".1"/>
  <path d="m15 24c0 10.154 3.416 12 15.334 12h3.666c-1.723-4.161-5-7-10-7-2.531 0-5-2.451-5-5z" fill="#e98a2b"/>
  <path d="m30.334 12c-11.918 0-15.334 1.846-15.334 12h4c0-2.549 2.469-5 5-5 5 0 8.277-2.839 10-7z" fill="#0fb5cf"/>
  <path d="m23.918 12c-6.582 0-11.918 5.373-11.918 12 0 6.627 5.336 12 11.918 12h7.334c-6.582 0-12.252-5.373-12.252-12 0-6.627 5.67-12 12.252-12" fill="#282d34"/>
</svg>

<svg xmlns="http://www.w3.org/2000/svg" viewBox="0 0 48 48">
 <defs>
  <linearGradient id="linearGradient3764" x1="1" x2="47" gradientUnits="userSpaceOnUse" gradientTransform="matrix(0,-1,1,0,-1.5e-6,47.999998)">
   <stop style="stop-color:#f2d5c6;stop-opacity:1"/>
   <stop offset="1" style="stop-color:#f6e1d6;stop-opacity:1"/>
  </linearGradient>
 </defs>
 <g>
  
  
  
 </g>
 <g>
  <path d="m 47,24 C 47,46.703 46.703,47 24,47 1.297,47 1,46.703 1,24 1,1.297 1.297,1 24,1 46.703,1 47,1.297 47,24 z" style="fill:url(#linearGradient3764);fill-opacity:1"/>
 </g>
 <path d="M 24.918,13 C 18.336,13 13,18.373 13,25 c 0,6.627 5.336,12 11.918,12 l 10.08,0 c -1.723,-4.161 -5,-7 -10,-7 -2.531,0 -5,-2.451 -5,-5 0,-2.549 2.469,-5 5,-5 5,0 8.277,-2.839 10,-7 z" style="fill:#000;opacity:0.1;fill-opacity:1;stroke:none"/>
 <g>
  
 </g>
 <path d="m 15,24 c 0,10.154 3.416,12 15.334,12 L 34,36 c -1.723,-4.161 -5,-7 -10,-7 -2.531,0 -5,-2.451 -5,-5 l -4,0 z" style="fill:#e98a2b;opacity:1;fill-opacity:1;stroke:none"/>
 <path d="M 30.334,12 C 18.416,12 15,13.846 15,24 l 4,0 c 0,-2.549 2.469,-5 5,-5 5,0 8.277,-2.839 10,-7 l -3.666,0 z" style="fill:#0fb5cf;opacity:1;fill-opacity:1;stroke:none"/>
 <path d="M 23.918,12 C 17.336,12 12,17.373 12,24 c 0,6.627 5.336,12 11.918,12 l 7.334,0 C 24.67,36 19,30.627 19,24 19,17.373 24.67,12 31.252,12" style="fill:#282d34;opacity:1;fill-opacity:1;stroke:none"/>
</svg>
